static/assets/images/icons/flume-logo.svg

<svg xmlns="http://www.w3.org/2000/svg" fill="none" viewBox="0 0 1282 555"><path fill="#000" d="m27.016 409.061 43.296-264.272H253.68l-9.678 57.81H131.434l-7.131 45.422h101.362l-9.677 57.809H114.626l-16.81 103.231zm209.41 0 43.295-264.272h70.801l-33.618 206.463h105.437l-9.678 57.809zm395.202-264.272h70.801l-27.76 169.299q-4.839 30.195-22.666 52.261-17.7 21.937-45.078 33.937-27.378 11.872-60.868 11.872-33.745 0-57.048-11.872-23.304-12-33.873-33.937-10.442-22.065-5.603-52.261l27.76-169.299h70.801l-26.741 163.106q-1.91 12.258 1.91 21.807 3.82 9.55 12.352 15.098 8.531 5.42 20.629 5.419 12.224 0 22.539-5.419 10.442-5.549 17.318-15.098t8.786-21.807zm104.45 0h88.119l36.165 149.686h3.056l85.062-149.686h88.12l-43.296 264.272h-69.273l24.959-152.782h-2.038l-82.516 150.717h-41.767l-33.108-151.749h-2.037l-25.468 153.814h-69.273zm290.782 264.272 43.29-264.272h187.96l-9.68 57.81h-117.15l-7.14 45.422h107.48l-9.68 57.809h-107.47l-7.13 45.422h116.64l-9.68 57.809zM72.673 117.313H1260.15l20.29-116.086c-12.02 4.879-216.11 72.114-352.392 72.733-142.381.647-331.559-65.376-473.876-69.788C258.03-1.908 86.574 109.297 72.673 117.313"/><path fill="#000" fill-rule="evenodd" d="M2.842 552.947h-.808l20.388-115.789H1213.36l-.07.451c-20.21 8.154-219.107 107.047-352.929 107.656-74.849.34-162.569-17.692-249.682-35.598-79.371-16.316-158.237-32.527-226.402-34.645C193.58 469.1 26.109 539.776 2.842 552.947" clip-rule="evenodd"/><path stroke="#000" d="M72.281 117.313h.392M1280.48 1l-.04.227M71.764 117.842s.307-.181.909-.529M1281 1l-.56.227M72.673 117.313H1260.15l20.29-116.086M72.673 117.313c13.9-8.016 185.357-119.222 381.499-113.14 142.317 4.41 331.495 70.433 473.876 69.787 136.282-.619 340.372-67.854 352.392-72.733m-66.04 435.931c-.27.111-.65.262-1.11.451M1 554q.676-.391 1.842-1.053m0 0h-.808l20.388-115.789H1213.36l-.07.451M2.842 552.947C26.11 539.776 193.58 469.1 384.277 475.022c68.165 2.118 147.031 18.329 226.402 34.645 87.113 17.906 174.833 35.938 249.682 35.598 133.822-.609 332.719-99.502 352.929-107.656M27.016 409.061l43.296-264.272H253.68l-9.678 57.81H131.434l-7.131 45.422h101.362l-9.677 57.809H114.626l-16.81 103.231zm209.41 0 43.295-264.272h70.801l-33.618 206.463h105.437l-9.678 57.809zm395.202-264.272h70.801l-27.76 169.299q-4.839 30.195-22.666 52.261-17.7 21.937-45.078 33.937-27.378 11.872-60.868 11.872-33.745 0-57.048-11.872-23.304-12-33.873-33.937-10.442-22.065-5.603-52.261l27.76-169.299h70.801l-26.741 163.106q-1.91 12.258 1.91 21.807 3.82 9.55 12.352 15.098 8.531 5.42 20.629 5.419 12.224 0 22.539-5.419 10.442-5.549 17.318-15.098t8.786-21.807zm104.45 0h88.119l36.165 149.686h3.056l85.062-149.686h88.12l-43.296 264.272h-69.273l24.959-152.782h-2.038l-82.516 150.717h-41.767l-33.108-151.749h-2.037l-25.468 153.814h-69.273zm290.782 264.272 43.29-264.272h187.96l-9.68 57.81h-117.15l-7.14 45.422h107.48l-9.68 57.809h-107.47l-7.13 45.422h116.64l-9.68 57.809z"/></svg>

<svg width="1282" height="555" viewBox="0 0 1282 555" fill="none" xmlns="http://www.w3.org/2000/svg">
<path d="M27.0163 409.061L70.3116 144.789H253.68L244.002 202.599H131.434L124.303 248.021H225.665L215.988 305.83H114.626L97.8169 409.061H27.0163Z" fill="black"/>
<path d="M236.426 409.061L279.721 144.789H350.522L316.904 351.252H422.341L412.663 409.061H236.426Z" fill="black"/>
<path d="M631.628 144.789H702.429L674.669 314.088C671.443 334.218 663.888 351.639 652.003 366.349C640.203 380.973 625.177 392.286 606.925 400.286C588.673 408.201 568.383 412.158 546.057 412.158C523.56 412.158 504.544 408.201 489.009 400.286C473.473 392.286 462.182 380.973 455.136 366.349C448.175 351.639 446.307 334.218 449.533 314.088L477.293 144.789H548.094L521.353 307.895C520.079 316.067 520.716 323.336 523.263 329.702C525.81 336.068 529.927 341.101 535.615 344.8C541.302 348.413 548.179 350.219 556.244 350.219C564.393 350.219 571.906 348.413 578.783 344.8C585.744 341.101 591.517 336.068 596.101 329.702C600.685 323.336 603.614 316.067 604.887 307.895L631.628 144.789Z" fill="black"/>
<path d="M736.078 144.789H824.197L860.362 294.475H863.418L948.48 144.789H1036.6L993.304 409.061H924.031L948.99 256.279H946.952L864.436 406.996H822.669L789.561 255.247H787.524L762.056 409.061H692.783L736.078 144.789Z" fill="black"/>
<path d="M1026.86 409.061L1070.15 144.789H1258.11L1248.43 202.599H1131.28L1124.14 248.021H1231.62L1221.94 305.83H1114.47L1107.34 351.252H1223.98L1214.3 409.061H1026.86Z" fill="black"/>
<path d="M72.673 117.313H1260.15L1280.44 1.22664C1268.42 6.106 1064.33 73.3412 928.048 73.9602C785.667 74.6069 596.489 8.58433 454.172 4.17218C258.03 -1.90869 86.5737 109.297 72.673 117.313Z" fill="black"/>
<path fill-rule="evenodd" clip-rule="evenodd" d="M2.84211 552.947H2.03356L22.4223 437.158H1213.36L1213.29 437.609C1193.08 445.763 994.183 544.656 860.361 545.265C785.512 545.605 697.792 527.573 610.679 509.667C531.308 493.351 452.442 477.14 384.277 475.022C193.58 469.1 26.1091 539.776 2.84211 552.947Z" fill="black"/>
<path d="M72.281 117.313H72.673M1280.48 1L1280.44 1.22664M71.7642 117.842C71.7642 117.842 72.0707 117.661 72.673 117.313M1281 1C1281 1 1280.81 1.07707 1280.44 1.22664M72.673 117.313H1260.15L1280.44 1.22664M72.673 117.313C86.5737 109.297 258.03 -1.90869 454.172 4.17218C596.489 8.58433 785.667 74.6069 928.048 73.9602C1064.33 73.3412 1268.42 6.106 1280.44 1.22664M1214.4 437.158C1214.13 437.269 1213.75 437.42 1213.29 437.609M1 554C1.45068 553.74 2.06622 553.387 2.84211 552.947M2.84211 552.947H2.03356L22.4223 437.158H1213.36L1213.29 437.609M2.84211 552.947C26.1091 539.776 193.58 469.1 384.277 475.022C452.442 477.14 531.308 493.351 610.679 509.667C697.792 527.573 785.512 545.605 860.361 545.265C994.183 544.656 1193.08 445.763 1213.29 437.609M27.0163 409.061L70.3116 144.789H253.68L244.002 202.599H131.434L124.303 248.021H225.665L215.988 305.83H114.626L97.8169 409.061H27.0163ZM236.426 409.061L279.721 144.789H350.522L316.904 351.252H422.341L412.663 409.061H236.426ZM631.628 144.789H702.429L674.669 314.088C671.443 334.218 663.888 351.639 652.003 366.349C640.203 380.973 625.177 392.286 606.925 400.286C588.673 408.201 568.383 412.158 546.057 412.158C523.56 412.158 504.544 408.201 489.009 400.286C473.473 392.286 462.182 380.973 455.136 366.349C448.175 351.639 446.307 334.218 449.533 314.088L477.293 144.789H548.094L521.353 307.895C520.079 316.067 520.716 323.336 523.263 329.702C525.81 336.068 529.927 341.101 535.615 344.8C541.302 348.413 548.179 350.219 556.244 350.219C564.393 350.219 571.906 348.413 578.783 344.8C585.744 341.101 591.517 336.068 596.101 329.702C600.685 323.336 603.614 316.067 604.887 307.895L631.628 144.789ZM736.078 144.789H824.197L860.362 294.475H863.418L948.48 144.789H1036.6L993.304 409.061H924.031L948.99 256.279H946.952L864.436 406.996H822.669L789.561 255.247H787.524L762.056 409.061H692.783L736.078 144.789ZM1026.86 409.061L1070.15 144.789H1258.11L1248.43 202.599H1131.28L1124.14 248.021H1231.62L1221.94 305.83H1114.47L1107.34 351.252H1223.98L1214.3 409.061H1026.86Z" stroke="black"/>
</svg>
